Simply-Cyan-Circles/scalable/apps/firewall.svg

<svg xmlns="http://www.w3.org/2000/svg" width="48" height="48" viewBox="0 0 12.7 12.7"><path fill="#5beedc" d="M6.344.073a6.29 6.29 0 0 0-6.29 6.29 6.29 6.29 0 0 0 6.29 6.288 6.29 6.29 0 0 0 6.29-6.289 6.29 6.29 0 0 0-6.29-6.29zm-.018.936a5.407 5.407 0 0 1 5.407 5.407 5.407 5.407 0 0 1-5.407 5.407A5.407 5.407 0 0 1 .92 6.416 5.407 5.407 0 0 1 6.326 1.01zM2.983 2.985a.125.125 0 0 0-.125.125v2.856c0 3.907 3.414 5.23 3.449 5.243.014.004.028.008.043.008.015 0 .03-.001.043-.008.035-.013 3.449-1.336 3.449-5.243V3.11a.125.125 0 0 0-.125-.125H2.983zm.124.25h6.485v2.73c0 3.494-2.852 4.827-3.242 4.992-.39-.165-3.243-1.493-3.243-4.991V3.235zm2.608.195c.138 1.075-.275 1.322-1.243 3.363-.968 2.04.885 3.336.885 3.336-.745-2.454.829-3.35.829-3.35-.11 1.31.634 2.329.634 2.329.273-.083.796-.468.796-.468 0 .468-.276 1.488-.276 1.488s.965-.746 1.269-1.985c.303-1.24-.578-2.483-.578-2.483a3.322 3.322 0 0 1-.825 2.398.48.48 0 0 0 .072-.111c.105-.21.272-.752.174-2.009C7.314 4.174 5.715 3.43 5.715 3.43z"/></svg>

<?xml version="1.0" encoding="UTF-8" standalone="no"?>
<svg
   xmlns:dc="http://purl.org/dc/elements/1.1/"
   xmlns:cc="http://creativecommons.org/ns#"
   xmlns:rdf="http://www.w3.org/1999/02/22-rdf-syntax-ns#"
   xmlns:svg="http://www.w3.org/2000/svg"
   xmlns="http://www.w3.org/2000/svg"
   xmlns:sodipodi="http://sodipodi.sourceforge.net/DTD/sodipodi-0.dtd"
   xmlns:inkscape="http://www.inkscape.org/namespaces/inkscape"
   width="48"
   height="48"
   viewBox="0 0 12.7 12.7"
   version="1.1"
   id="svg4"
   sodipodi:docname="firewall.svg"
   inkscape:version="0.92.4 (5da689c313, 2019-01-14)">
  <metadata
     id="metadata10">
    <rdf:RDF>
      <cc:Work
         rdf:about="">
        <dc:format>image/svg+xml</dc:format>
        <dc:type
           rdf:resource="http://purl.org/dc/dcmitype/StillImage" />
        <dc:title></dc:title>
      </cc:Work>
    </rdf:RDF>
  </metadata>
  <defs
     id="defs8" />
  <sodipodi:namedview
     pagecolor="#ffffff"
     bordercolor="#666666"
     borderopacity="1"
     objecttolerance="10"
     gridtolerance="10"
     guidetolerance="10"
     inkscape:pageopacity="0"
     inkscape:pageshadow="2"
     inkscape:window-width="1087"
     inkscape:window-height="480"
     id="namedview6"
     showgrid="false"
     inkscape:zoom="4.9166667"
     inkscape:cx="2.1355932"
     inkscape:cy="24"
     inkscape:window-x="0"
     inkscape:window-y="25"
     inkscape:window-maximized="0"
     inkscape:current-layer="svg4" />
  <path
     d="m 6.344,0.073 a 6.29,6.29 0 0 0 -6.29,6.29 6.29,6.29 0 0 0 6.29,6.288 6.29,6.29 0 0 0 6.29,-6.289 6.29,6.29 0 0 0 -6.29,-6.29 z M 6.326,1.009 A 5.407,5.407 0 0 1 11.733,6.416 5.407,5.407 0 0 1 6.326,11.823 5.407,5.407 0 0 1 0.92,6.416 5.407,5.407 0 0 1 6.326,1.01 Z M 2.983,2.985 A 0.125,0.125 0 0 0 2.858,3.11 v 2.856 c 0,3.907 3.414,5.23 3.449,5.243 0.014,0.004 0.028,0.008 0.043,0.008 0.015,0 0.03,-0.001 0.043,-0.008 C 6.428,11.196 9.842,9.873 9.842,5.966 V 3.11 A 0.125,0.125 0 0 0 9.717,2.985 Z m 0.124,0.25 h 6.485 v 2.73 C 9.592,9.459 6.74,10.792 6.35,10.957 5.96,10.792 3.107,9.464 3.107,5.966 Z M 5.715,3.43 C 5.853,4.505 5.44,4.752 4.472,6.793 3.504,8.833 5.357,10.129 5.357,10.129 4.612,7.675 6.186,6.779 6.186,6.779 6.076,8.089 6.82,9.108 6.82,9.108 7.093,9.025 7.616,8.64 7.616,8.64 c 0,0.468 -0.276,1.488 -0.276,1.488 0,0 0.965,-0.746 1.269,-1.985 C 8.912,6.903 8.031,5.66 8.031,5.66 A 3.322,3.322 0 0 1 7.206,8.058 0.48,0.48 0 0 0 7.278,7.947 C 7.383,7.737 7.55,7.195 7.452,5.938 7.314,4.174 5.715,3.43 5.715,3.43 Z"
     id="path2"
     inkscape:connector-curvature="0"
     style="fill:#5beedc" />
</svg>
